X: 75
M: C
L: 1/8
K: D
d2f2 a3a | b2a2 f2e2 | defg a2a2 | b2a2 f3z |
d2f2 a3a | b2a2 f2e2 | dfed B2A2 | B2c2 d4 ||


